svg/100-white.svg

<svg height="288pt" stroke-linejoin="round" viewBox="0 0 432 288" width="432pt" xmlns="http://www.w3.org/2000/svg"><g stroke-linejoin="round"><path d="m0 288h432v-288h-432z" fill="none"/><path d="m320.236364 143.28c0-12.979072-2.556595-25.83194-7.523471-37.823039s-12.24744-22.887234-21.42503-32.064824-20.073725-16.458154-32.064824-21.42503-24.843967-7.523471-37.823039-7.523471-25.83194 2.556595-37.823039 7.523471-22.887234 12.24744-32.064824 21.42503-16.458154 20.073725-21.42503 32.064824-7.523471 24.843967-7.523471 37.823039 2.556595 25.83194 7.523471 37.823039 12.24744 22.887234 21.42503 32.064824 20.073725 16.458154 32.064824 21.42503 24.843967 7.523471 37.823039 7.523471 25.83194-2.556595 37.823039-7.523471 22.887234-12.24744 32.064824-21.42503 16.458154-20.073725 21.42503-32.064824 7.523471-24.843967 7.523471-37.823039" fill="#fff"/></g></svg>

<?xml version="1.0" encoding="utf-8" standalone="no"?>
<!DOCTYPE svg PUBLIC "-//W3C//DTD SVG 1.1//EN"
  "http://www.w3.org/Graphics/SVG/1.1/DTD/svg11.dtd">
<!-- Created with matplotlib (http://matplotlib.org/) -->
<svg height="288pt" version="1.1" viewBox="0 0 432 288" width="432pt" xmlns="http://www.w3.org/2000/svg" xmlns:xlink="http://www.w3.org/1999/xlink">
 <defs>
  <style type="text/css">
*{stroke-linecap:butt;stroke-linejoin:round;}
  </style>
 </defs>
 <g id="figure_1">
  <g id="patch_1">
   <path d="M 0 288 
L 432 288 
L 432 0 
L 0 0 
z
" style="fill:none;"/>
  </g>
  <g id="axes_1">
   <g id="patch_2">
    <path d="M 320.236364 143.28 
C 320.236364 130.300928 317.679769 117.44806 312.712893 105.456961 
C 307.746017 93.465862 300.465453 82.569727 291.287863 73.392137 
C 282.110273 64.214547 271.214138 56.933983 259.223039 51.967107 
C 247.23194 47.000231 234.379072 44.443636 221.4 44.443636 
C 208.420928 44.443636 195.56806 47.000231 183.576961 51.967107 
C 171.585862 56.933983 160.689727 64.214547 151.512137 73.392137 
C 142.334547 82.569727 135.053983 93.465862 130.087107 105.456961 
C 125.120231 117.44806 122.563636 130.300928 122.563636 143.28 
C 122.563636 156.259072 125.120231 169.11194 130.087107 181.103039 
C 135.053983 193.094138 142.334547 203.990273 151.512137 213.167863 
C 160.689727 222.345453 171.585862 229.626017 183.576961 234.592893 
C 195.56806 239.559769 208.420928 242.116364 221.4 242.116364 
C 234.379072 242.116364 247.23194 239.559769 259.223039 234.592893 
C 271.214138 229.626017 282.110273 222.345453 291.287863 213.167863 
C 300.465453 203.990273 307.746017 193.094138 312.712893 181.103039 
C 317.679769 169.11194 320.236364 156.259072 320.236364 143.28 
M 221.4 143.28 
M 320.236364 143.28 
z
" style="fill:#ffffff;"/>
   </g>
   <g id="patch_3">
    <path d="M 221.4 44.443636 
C 221.4 44.443636 221.4 44.443636 221.4 44.443636 
L 221.4 49.385455 
C 221.4 49.385455 221.4 49.385455 221.4 49.385455 
z
" style="fill:#ffffff;"/>
   </g>
   <g id="matplotlib.axis_1"/>
   <g id="matplotlib.axis_2"/>
  </g>
 </g>
</svg>
